icons/zodiac-cancer.svg

<svg width="24" height="24" viewBox="0 0 24 24" fill="none" xmlns="http://www.w3.org/2000/svg">
<path fill-rule="evenodd" clip-rule="evenodd" d="M16.7244 6.46103C15.2525 6.03896 13.6253 5.8706 12.0083 5.97859C10.3906 6.08663 8.86176 6.46593 7.5725 7.06452C6.97691 7.34104 6.44896 7.65652 5.9935 7.99977C5.99567 7.99977 5.99785 7.99977 6.00002 7.99977C8.20916 7.99977 10 9.79063 10 11.9998C10 14.2089 8.20916 15.9998 6.00002 15.9998C3.81311 15.9998 2.0361 14.2448 2.00057 12.0663C1.8362 10.6859 2.22621 9.32976 3.07017 8.14204C3.92012 6.94589 5.19744 5.96218 6.73028 5.2505C8.26617 4.53741 10.0391 4.10565 11.8751 3.98304C13.7117 3.86038 15.5711 4.04972 17.2757 4.53851C17.8066 4.69074 18.1135 5.24452 17.9613 5.77541C17.8091 6.3063 17.2553 6.61326 16.7244 6.46103ZM6.00002 9.99977C4.89545 9.99977 4.00002 10.8952 4.00002 11.9998C4.00002 13.1043 4.89545 13.9998 6.00002 13.9998C7.10459 13.9998 8.00002 13.1043 8.00002 11.9998C8.00002 10.8952 7.10459 9.99977 6.00002 9.99977ZM18 9.99977C16.8955 9.99977 16 10.8952 16 11.9998C16 13.1043 16.8955 13.9998 18 13.9998C19.1046 13.9998 20 13.1043 20 11.9998C20 10.8952 19.1046 9.99977 18 9.99977ZM14 11.9998C14 9.79063 15.7909 7.99977 18 7.99977C20.1869 7.99977 21.964 9.75478 21.9995 11.9332C22.1638 13.3137 21.7738 14.6698 20.9299 15.8575C20.0799 17.0537 18.8026 18.0374 17.2698 18.749C15.7339 19.4621 13.9609 19.8939 12.125 20.0165C10.2884 20.1392 8.42895 19.9498 6.72438 19.461C6.19349 19.3088 5.88653 18.755 6.03876 18.2241C6.191 17.6932 6.74478 17.3863 7.27567 17.5385C8.74757 17.9606 10.3747 18.1289 11.9917 18.0209C13.6094 17.9129 15.1383 17.5336 16.4276 16.935C17.0231 16.6585 17.5511 16.343 18.0066 15.9998C18.0044 15.9998 18.0022 15.9998 18 15.9998C15.7909 15.9998 14 14.2089 14 11.9998Z" fill="black"/>
</svg>

<svg
  width="24"
  height="24"
  viewBox="0 0 24 24"
  xmlns="http://www.w3.org/2000/svg"
>
  <path
    fill-rule="evenodd"
    clip-rule="evenodd"
    d="M16.724 6.461c-1.472-.422-3.099-.59-4.716-.482-1.617.108-3.146.487-4.435 1.086A8.728 8.728 0 0 0 5.992 8H6a4 4 0 1 1-4 4.066c-.164-1.38.226-2.736 1.07-3.924.85-1.196 2.127-2.18 3.66-2.891 1.536-.714 3.31-1.145 5.145-1.268a15.917 15.917 0 0 1 5.4.556 1 1 0 0 1-.55 1.922zM6 10a2 2 0 1 0 0 4 2 2 0 0 0 0-4zm12 0a2 2 0 1 0 0 4 2 2 0 0 0 0-4zm-4 2a4 4 0 0 1 8-.067c.164 1.38-.226 2.737-1.07 3.925-.85 1.196-2.127 2.18-3.66 2.891-1.536.713-3.31 1.145-5.145 1.268a15.916 15.916 0 0 1-5.4-.556 1 1 0 1 1 .55-1.922c1.473.422 3.1.59 4.717.482 1.617-.108 3.146-.487 4.436-1.086A8.734 8.734 0 0 0 18.007 16H18a4 4 0 0 1-4-4z"
  />
</svg>
